docs/img/dist/icon-faq-10.svg

<svg width="18" height="20" viewBox="0 0 18 20" fill="none" xmlns="http://www.w3.org/2000/svg">
<path d="M17.25 8.075C17.9375 7.3875 17.9375 6.2875 17.25 5.66875L12.4375 0.856247C12.1196 0.561489 11.7022 0.397705 11.2687 0.397705C10.8353 0.397705 10.4178 0.561489 10.1 0.856247L6.11247 4.84375C5.86633 5.09166 5.70157 5.40869 5.64016 5.7526C5.57875 6.09651 5.62359 6.45097 5.76872 6.76875L4.53122 8.075C4.43452 8.17714 4.38062 8.31246 4.38062 8.45312C4.38062 8.59378 4.43452 8.7291 4.53122 8.83125L4.80622 9.10625C5.01247 9.3125 5.01247 9.65625 4.80622 9.8625L1.84997 13.6437C1.62671 13.9383 1.50021 14.2947 1.4879 14.6641C1.47559 15.0334 1.57806 15.3975 1.78122 15.7062L1.43747 16.1875C0.818722 17.2187 0.749972 17.6312 0.749972 17.8375C0.740707 18.0689 0.778313 18.2998 0.860531 18.5164C0.942748 18.7329 1.06788 18.9306 1.22841 19.0975C1.38895 19.2645 1.58157 19.3973 1.79471 19.4879C2.00785 19.5786 2.23711 19.6252 2.46872 19.625C2.91254 19.6072 3.33225 19.4183 3.63986 19.0979C3.94746 18.7775 4.11908 18.3504 4.11872 17.9062C4.11872 17.7 4.11872 17.3562 3.70622 16.6C3.9818 16.5464 4.24088 16.4286 4.46247 16.2562L8.24372 13.3C8.34587 13.2033 8.48118 13.1494 8.62185 13.1494C8.76251 13.1494 8.89783 13.2033 8.99997 13.3L9.27497 13.6437C9.32658 13.7023 9.39006 13.7491 9.46118 13.7812C9.5323 13.8134 9.60944 13.83 9.68747 13.83C9.7655 13.83 9.84264 13.8134 9.91376 13.7812C9.98489 13.7491 10.0484 13.7023 10.1 13.6437L11.3375 12.3375C11.6486 12.4914 11.999 12.5475 12.3426 12.4984C12.6862 12.4493 13.0069 12.2973 13.2625 12.0625L17.25 8.075ZM1.91872 17.9062C1.91872 17.7687 2.12497 17.2187 2.46872 16.7375C2.81247 17.2875 3.01872 17.7687 3.01872 17.9062C3.01872 18.0521 2.96078 18.192 2.85763 18.2952C2.75449 18.3983 2.61459 18.4562 2.46872 18.4562C2.32285 18.4562 2.18296 18.3983 2.07981 18.2952C1.97667 18.192 1.91872 18.0521 1.91872 17.9062ZM5.90622 10.275L6.11247 10.4125C6.1559 10.4834 6.21484 10.5436 6.28487 10.5884C6.3549 10.6333 6.4342 10.6617 6.51678 10.6715C6.59937 10.6813 6.68311 10.6722 6.76169 10.645C6.84027 10.6177 6.91165 10.573 6.97045 10.5142C7.02926 10.4554 7.07397 10.384 7.10121 10.3055C7.12845 10.2269 7.13751 10.1431 7.12772 10.0606C7.11793 9.97797 7.08953 9.89868 7.04467 9.82865C6.99981 9.75862 6.93965 9.69967 6.86872 9.65625L5.69997 8.41875L6.52497 7.6625L10.5125 11.65L9.68747 12.4062L8.51872 11.2375C8.40932 11.119 8.25732 11.0488 8.09615 11.0423C7.93499 11.0359 7.77787 11.0937 7.65935 11.2031C7.54083 11.3125 7.47062 11.4645 7.46418 11.6257C7.45773 11.7869 7.51557 11.944 7.62497 12.0625L7.83122 12.2C7.70868 12.2545 7.59325 12.3238 7.48747 12.4062L3.70622 15.3625C3.43122 15.5687 3.01872 15.5687 2.81247 15.2937C2.53747 15.0187 2.46872 14.6062 2.67497 14.3312L5.63122 10.55C5.70899 10.4655 5.77808 10.3733 5.83747 10.275H5.90622ZM16.4937 6.425C16.7 6.7 16.7 7.04375 16.4937 7.25L12.4375 11.2375C12.3859 11.296 12.3224 11.3429 12.2513 11.375C12.1801 11.4071 12.103 11.4237 12.025 11.4237C11.9469 11.4237 11.8698 11.4071 11.7987 11.375C11.7276 11.3429 11.6641 11.296 11.6125 11.2375L6.79997 6.425C6.70327 6.32285 6.64937 6.18753 6.64937 6.04687C6.64937 5.90621 6.70327 5.77089 6.79997 5.66875L10.7875 1.68125C10.8391 1.62272 10.9026 1.57585 10.9737 1.54375C11.0448 1.51164 11.1219 1.49504 11.2 1.49504C11.278 1.49504 11.3551 1.51164 11.4263 1.54375C11.4974 1.57585 11.5609 1.62272 11.6125 1.68125L16.425 6.49375L16.4937 6.425Z" fill="#202020"/>
<path d="M14.8437 7.24988C14.9023 7.19827 14.9491 7.13479 14.9812 7.06367C15.0133 6.99255 15.0299 6.91541 15.0299 6.83738C15.0299 6.75935 15.0133 6.68221 14.9812 6.61109C14.9491 6.53997 14.9023 6.47649 14.8437 6.42488L11.75 3.26238C11.6984 3.20386 11.6349 3.15699 11.5638 3.12488C11.4927 3.09278 11.4155 3.07617 11.3375 3.07617C11.2595 3.07617 11.1823 3.09278 11.1112 3.12488C11.0401 3.15699 10.9766 3.20386 10.925 3.26238L8.58749 5.66863C8.49078 5.77078 8.43689 5.90609 8.43689 6.04676C8.43689 6.18742 8.49078 6.32274 8.58749 6.42488L11.75 9.65613C11.9562 9.86238 12.3 9.86238 12.575 9.65613L14.9125 7.24988H14.8437ZM13.675 6.83738L12.0937 8.41863L9.68749 6.08113L11.2687 4.43113L13.675 6.83738Z" fill="#D61635"/>
</svg>

<svg width="18" height="20" fill="none" xmlns="http://www.w3.org/2000/svg"><path d="M17.25 8.075c.688-.687.688-1.787 0-2.406L12.437.856a1.719 1.719 0 00-2.337 0L6.112 4.844a1.719 1.719 0 00-.343 1.925L4.53 8.075a.55.55 0 000 .756l.275.275a.54.54 0 010 .757l-2.956 3.78a1.788 1.788 0 00-.069 2.063l-.344.482C.82 17.218.75 17.63.75 17.837a1.72 1.72 0 001.719 1.787 1.719 1.719 0 001.65-1.719c0-.206 0-.55-.413-1.306.276-.054.535-.171.756-.344L8.244 13.3a.55.55 0 01.756 0l.275.344a.549.549 0 00.825 0l1.238-1.306a1.718 1.718 0 001.925-.275l3.987-3.988zM1.919 17.906c0-.137.206-.687.55-1.168.343.55.55 1.03.55 1.168a.55.55 0 01-1.1 0zm3.987-7.631l.206.137a.55.55 0 10.757-.756L5.7 8.42l.825-.757 3.987 3.988-.825.756-1.168-1.168a.608.608 0 00-.894.825l.206.137a1.652 1.652 0 00-.344.206l-3.78 2.957c-.276.206-.688.206-.895-.07-.275-.274-.343-.687-.137-.962l2.956-3.781c.078-.085.147-.177.206-.275h.07zm10.588-3.85c.206.275.206.619 0 .825l-4.056 3.988a.55.55 0 01-.825 0L6.8 6.425a.55.55 0 010-.756l3.987-3.988a.55.55 0 01.825 0l4.813 4.813.069-.069z" fill="#202020"/><path d="M14.844 7.25a.549.549 0 000-.825L11.75 3.262a.55.55 0 00-.825 0L8.587 5.67a.55.55 0 000 .756l3.163 3.231c.206.206.55.206.825 0l2.338-2.406h-.07zm-1.169-.413L12.094 8.42 9.687 6.08l1.582-1.65 2.406 2.406z" fill="#D61635"/></svg>
